assets/svg/app/no-notifications.svg

<svg width="40" height="40" viewBox="0 0 40 40" fill="none" xmlns="http://www.w3.org/2000/svg">
<path d="M34.5599 4.16384H32.3759V3.33984H35.7359V4.24384L33.5599 6.67584H35.7519V7.49984H32.3599V6.61984L34.5599 4.16384Z" fill="currentColor"/>
<path d="M29.42 9.49788H27.782V8.87988H30.302V9.55788L28.67 11.3819H30.314V11.9999H27.77V11.3399L29.42 9.49788Z" fill="currentColor"/>
<path d="M20.0526 33.5C21.4376 33.5 22.5709 32.3923 22.5709 31.0385H17.5343C17.5343 32.3923 18.6549 33.5 20.0526 33.5ZM27.6075 26.1154V19.9615C27.6075 16.1831 25.5425 13.02 21.9413 12.1831V11.3462C21.9413 10.3246 21.0977 9.5 20.0526 9.5C19.0075 9.5 18.1638 10.3246 18.1638 11.3462V12.1831C14.5501 13.02 12.4976 16.1708 12.4976 19.9615V26.1154L10.8733 27.7031C10.08 28.4785 10.6341 29.8077 11.7547 29.8077H28.3378C29.4585 29.8077 30.0251 28.4785 29.2318 27.7031L27.6075 26.1154Z" fill="currentColor"/>
</svg>

<svg viewBox="0 0 40 40" fill="none" xmlns="http://www.w3.org/2000/svg">
    <path d="M34.56 4.164h-2.184V3.34h3.36v.904L33.56 6.676h2.192V7.5H32.36v-.88l2.2-2.456zm-5.14 5.334h-1.638V8.88h2.52v.678l-1.632 1.824h1.644V12H27.77v-.66l1.65-1.842zM20.053 33.5c1.385 0 2.518-1.108 2.518-2.462h-5.037c0 1.354 1.12 2.462 2.519 2.462zm7.555-7.385v-6.153c0-3.779-2.066-6.942-5.667-7.779v-.837c0-1.021-.843-1.846-1.888-1.846-1.046 0-1.89.825-1.89 1.846v.837c-3.613.837-5.665 3.988-5.665 7.779v6.153l-1.625 1.588c-.793.776-.239 2.105.882 2.105h16.583c1.12 0 1.687-1.33.894-2.105l-1.624-1.588z" fill="currentColor"/>
</svg>
